_includes/icons/color-psd.svg

<svg fill="#666" height="50" viewBox="0 0 48 48" width="50" xmlns="http://www.w3.org/2000/svg"><path d="m40 45h-32v-42h22l10 10z" fill="#3f51b5"/><g fill="#e8eaf6"><path d="m38.5 14h-9.5v-9.5z"/><path d="m15.476563 29.5v3.5h-2.011719v-9.953125h3.390625c.984375 0 1.773437.304688 2.355469.917969.585937.609375.878906 1.402344.878906 2.378906 0 .972656-.289063 1.742188-.867188 2.308594s-1.382812.847656-2.40625.847656zm0-1.675781h1.378906c.382812 0 .679687-.125.890625-.375.210937-.25.3125-.613281.3125-1.09375 0-.496094-.105469-.890625-.320313-1.1875-.214843-.292969-.5-.441406-.859375-.445313h-1.402343z"/><path d="m25.636719 30.390625c0-.40625-.105469-.714844-.3125-.921875-.210938-.207031-.585938-.421875-1.132813-.644531-.996093-.378906-1.714843-.820313-2.152343-1.332031-.4375-.507813-.65625-1.105469-.65625-1.800782 0-.835937.296875-1.511718.890625-2.019531.597656-.507812 1.351562-.761719 2.265625-.761719.613281 0 1.15625.128907 1.636718.386719.476563.257813.847657.621094 1.101563 1.089844.257812.46875.386719 1.003906.386719 1.601562h-2.003907c0-.464843-.097656-.820312-.296875-1.0625-.199218-.246093-.484375-.367187-.855468-.367187-.351563 0-.625.105469-.820313.3125-.199219.207031-.296875.484375-.296875.835937 0 .273438.109375.523438.328125.742188.21875.222656.605469.449219 1.164063.6875.96875.351562 1.675781.78125 2.113281 1.292969.441406.511718.660156 1.160156.660156 1.949218 0 .863282-.273437 1.542969-.828125 2.027344-.550781.488281-1.300781.730469-2.246094.730469-.644531 0-1.230468-.128906-1.757812-.394531s-.941406-.644532-1.242188-1.136719c-.296875-.492188-.445312-1.070313-.445312-1.742188h2.015625c0 .574219.113281.992188.335937 1.25.222657.261719.585938.390625 1.09375.390625.699219 0 1.054688-.371093 1.054688-1.113281z"/><path d="m28.988281 33v-9.953125h2.632813c1.164062 0 2.089844.367188 2.78125 1.105469.6875.738281 1.039062 1.75 1.054687 3.035156v1.613281c0 1.308594-.34375 2.335938-1.035156 3.082032-.691406.746093-1.640625 1.117187-2.855469 1.117187zm2.011719-8.277344v6.609375h.601563c.671875 0 1.144531-.175781 1.417968-.53125.269532-.351562.414063-.960937.429688-1.828125v-1.726562c0-.929688-.128906-1.578125-.390625-1.945313-.257813-.367187-.703125-.558593-1.324219-.578125z"/></g></svg>

<svg xmlns="http://www.w3.org/2000/svg" viewBox="0 0 48 48" width="50" height="50" fill="#666"><path d="M 40 45 L 8 45 L 8 3 L 30 3 L 40 13 Z" fill="#3f51b5"/><path d="M 38.5 14 L 29 14 L 29 4.5 Z" fill="#e8eaf6"/><path d="M 15.476563 29.5 L 15.476563 33 L 13.464844 33 L 13.464844 23.046875 L 16.855469 23.046875 C 17.839844 23.046875 18.628906 23.351563 19.210938 23.964844 C 19.796875 24.574219 20.089844 25.367188 20.089844 26.34375 C 20.089844 27.316406 19.800781 28.085938 19.222656 28.652344 C 18.644531 29.21875 17.839844 29.5 16.816406 29.5 Z M 15.476563 27.824219 L 16.855469 27.824219 C 17.238281 27.824219 17.535156 27.699219 17.746094 27.449219 C 17.957031 27.199219 18.058594 26.835938 18.058594 26.355469 C 18.058594 25.859375 17.953125 25.464844 17.738281 25.167969 C 17.523438 24.875 17.238281 24.726563 16.878906 24.722656 L 15.476563 24.722656 Z" fill="#e8eaf6"/><path d="M 25.636719 30.390625 C 25.636719 29.984375 25.53125 29.675781 25.324219 29.46875 C 25.113281 29.261719 24.738281 29.046875 24.191406 28.824219 C 23.195313 28.445313 22.476563 28.003906 22.039063 27.492188 C 21.601563 26.984375 21.382813 26.386719 21.382813 25.691406 C 21.382813 24.855469 21.679688 24.179688 22.273438 23.671875 C 22.871094 23.164063 23.625 22.910156 24.539063 22.910156 C 25.152344 22.910156 25.695313 23.039063 26.175781 23.296875 C 26.652344 23.554688 27.023438 23.917969 27.277344 24.386719 C 27.535156 24.855469 27.664063 25.390625 27.664063 25.988281 L 25.660156 25.988281 C 25.660156 25.523438 25.5625 25.167969 25.363281 24.925781 C 25.164063 24.679688 24.878906 24.558594 24.507813 24.558594 C 24.15625 24.558594 23.882813 24.664063 23.6875 24.871094 C 23.488281 25.078125 23.390625 25.355469 23.390625 25.707031 C 23.390625 25.980469 23.5 26.230469 23.71875 26.449219 C 23.9375 26.671875 24.324219 26.898438 24.882813 27.136719 C 25.851563 27.488281 26.558594 27.917969 26.996094 28.429688 C 27.4375 28.941406 27.65625 29.589844 27.65625 30.378906 C 27.65625 31.242188 27.382813 31.921875 26.828125 32.40625 C 26.277344 32.894531 25.527344 33.136719 24.582031 33.136719 C 23.9375 33.136719 23.351563 33.007813 22.824219 32.742188 C 22.296875 32.476563 21.882813 32.097656 21.582031 31.605469 C 21.285156 31.113281 21.136719 30.535156 21.136719 29.863281 L 23.152344 29.863281 C 23.152344 30.4375 23.265625 30.855469 23.488281 31.113281 C 23.710938 31.375 24.074219 31.503906 24.582031 31.503906 C 25.28125 31.503906 25.636719 31.132813 25.636719 30.390625 Z" fill="#e8eaf6"/><path d="M 28.988281 33 L 28.988281 23.046875 L 31.621094 23.046875 C 32.785156 23.046875 33.710938 23.414063 34.402344 24.152344 C 35.089844 24.890625 35.441406 25.902344 35.457031 27.1875 L 35.457031 28.800781 C 35.457031 30.109375 35.113281 31.136719 34.421875 31.882813 C 33.730469 32.628906 32.78125 33 31.566406 33 Z M 31 24.722656 L 31 31.332031 L 31.601563 31.332031 C 32.273438 31.332031 32.746094 31.15625 33.019531 30.800781 C 33.289063 30.449219 33.433594 29.839844 33.449219 28.972656 L 33.449219 27.246094 C 33.449219 26.316406 33.320313 25.667969 33.058594 25.300781 C 32.800781 24.933594 32.355469 24.742188 31.734375 24.722656 Z" fill="#e8eaf6"/></svg>
